svg/devices.svg

<?xml version="1.0" encoding="UTF-8" standalone="no"?>
<svg
   width="25"
   height="25"
   viewBox="0 0 25 25"
   fill="none"
   version="1.1"
   id="svg3"
   sodipodi:docname="devices.svg"
   inkscape:version="1.4 (86a8ad7, 2024-10-11)"
   xmlns:inkscape="http://www.inkscape.org/namespaces/inkscape"
   xmlns:sodipodi="http://sodipodi.sourceforge.net/DTD/sodipodi-0.dtd"
   xmlns="http://www.w3.org/2000/svg"
   xmlns:svg="http://www.w3.org/2000/svg">
  <defs
     id="defs3" />
  <sodipodi:namedview
     id="namedview3"
     pagecolor="#ffffff"
     bordercolor="#000000"
     borderopacity="0.25"
     inkscape:showpageshadow="2"
     inkscape:pageopacity="0.0"
     inkscape:pagecheckerboard="0"
     inkscape:deskcolor="#d1d1d1"
     inkscape:zoom="31.32"
     inkscape:cx="12.5"
     inkscape:cy="12.5"
     inkscape:window-width="1920"
     inkscape:window-height="1001"
     inkscape:window-x="-9"
     inkscape:window-y="-9"
     inkscape:window-maximized="1"
     inkscape:current-layer="svg3" />
  <g
     id="g3"
     transform="translate(0.27111,-0.1067)">
    <path
       d="m 14.2289,2.3567 h -4 c -3.77126,0 -5.65687,0 -6.82845,1.17157 C 2.22888,4.69985 2.22888,6.58546 2.22888,10.3567 v 1 c 0,0.5516 0,1.0494 0.00652,1.5 h 10.5952 c 0.1037,-0.6793 0.3359,-1.3873 0.9234,-1.9749 0.6181,-0.618 1.3695,-0.8429 2.0805,-0.93849 0.6456,-0.0868 1.4393,-0.08671 2.3049,-0.08661 h 0.179 c 0.8656,-10e-5 1.6593,-1.9e-4 2.3049,0.08661 0.5371,0.07219 1.0973,0.21819 1.6056,0.55169 v -0.1383 c 0,-3.77124 0,-5.65685 -1.1716,-6.82843 C 19.8858,2.3567 18.0001,2.3567 14.2289,2.3567 Z"
       fill="#2d2d2d"
       id="path1" />
    <path
       d="m 3.10754,16.478 c 0.87868,0.8787 2.29289,0.8787 5.12132,0.8787 h 3.25004 v 4 H 8.22886 c -0.41421,0 -0.75,0.3358 -0.75,0.75 0,0.4142 0.33579,0.75 0.75,0.75 H 13.7794 L 13.754,22.8316 c -0.618,-0.6181 -0.8429,-1.3695 -0.9385,-2.0805 -0.0868,-0.6456 -0.0867,-1.4393 -0.0866,-2.3049 v -3.179 c -10e-5,-0.4989 -10e-5,-0.974 0.0165,-1.4105 H 2.26721 c 0.07058,1.2579 0.27103,2.052 0.84033,2.6213 z"
       fill="#2d2d2d"
       id="path2" />
    <path
       fill-rule="evenodd"
       clip-rule="evenodd"
       d="m 22.2289,15.3567 v 3 c 0,1.8856 0,2.8284 -0.5858,3.4142 -0.5858,0.5858 -1.5286,0.5858 -3.4142,0.5858 -1.8856,0 -2.8284,0 -3.4142,-0.5858 -0.5858,-0.5858 -0.5858,-1.5286 -0.5858,-3.4142 v -3 c 0,-1.8856 0,-2.8284 0.5858,-3.4142 0.5858,-0.5858 1.5286,-0.5858 3.4142,-0.5858 1.8856,0 2.8284,0 3.4142,0.5858 0.5858,0.5858 0.5858,1.5286 0.5858,3.4142 z m -5.75,5 c 0,-0.4142 0.3358,-0.75 0.75,-0.75 h 2 c 0.4142,0 0.75,0.3358 0.75,0.75 0,0.4142 -0.3358,0.75 -0.75,0.75 h -2 c -0.4142,0 -0.75,-0.3358 -0.75,-0.75 z"
       fill="#2d2d2d"
       id="path3" />
  </g>
</svg>

<svg width="25" height="25" viewBox="0 0 25 25" fill="none" xmlns="http://www.w3.org/2000/svg">
<path d="M14.2289 2.3567H10.2289C6.45764 2.3567 4.57203 2.3567 3.40045 3.52827C2.22888 4.69985 2.22888 6.58546 2.22888 10.3567V11.3567C2.22888 11.9083 2.22888 12.4061 2.2354 12.8567H12.8306C12.9343 12.1774 13.1665 11.4694 13.754 10.8818C14.3721 10.2638 15.1235 10.0389 15.8345 9.94331C16.4801 9.85651 17.2738 9.8566 18.1394 9.8567H18.3184C19.184 9.8566 19.9777 9.85651 20.6233 9.94331C21.1604 10.0155 21.7206 10.1615 22.2289 10.495V10.3567C22.2289 6.58546 22.2289 4.69985 21.0573 3.52827C19.8858 2.3567 18.0001 2.3567 14.2289 2.3567Z" fill="#2D2D2D"/>
<path d="M3.10754 16.478C3.98622 17.3567 5.40043 17.3567 8.22886 17.3567H11.4789V21.3567H8.22886C7.81465 21.3567 7.47886 21.6925 7.47886 22.1067C7.47886 22.5209 7.81465 22.8567 8.22886 22.8567H13.7794L13.754 22.8316C13.136 22.2135 12.9111 21.4621 12.8155 20.7511C12.7287 20.1055 12.7288 19.3118 12.7289 18.4462V15.2672C12.7288 14.7683 12.7288 14.2932 12.7454 13.8567H2.26721C2.33779 15.1146 2.53824 15.9087 3.10754 16.478Z" fill="#2D2D2D"/>
<path fill-rule="evenodd" clip-rule="evenodd" d="M22.2289 15.3567V18.3567C22.2289 20.2423 22.2289 21.1851 21.6431 21.7709C21.0573 22.3567 20.1145 22.3567 18.2289 22.3567C16.3433 22.3567 15.4005 22.3567 14.8147 21.7709C14.2289 21.1851 14.2289 20.2423 14.2289 18.3567V15.3567C14.2289 13.4711 14.2289 12.5283 14.8147 11.9425C15.4005 11.3567 16.3433 11.3567 18.2289 11.3567C20.1145 11.3567 21.0573 11.3567 21.6431 11.9425C22.2289 12.5283 22.2289 13.4711 22.2289 15.3567ZM16.4789 20.3567C16.4789 19.9425 16.8147 19.6067 17.2289 19.6067H19.2289C19.6431 19.6067 19.9789 19.9425 19.9789 20.3567C19.9789 20.7709 19.6431 21.1067 19.2289 21.1067H17.2289C16.8147 21.1067 16.4789 20.7709 16.4789 20.3567Z" fill="#2D2D2D"/>
</svg>
